X:1
T: Nine Points Of Roguery, The
M: 4/4
L: 1/8
R: reel
K: Dmaj
%%printtempo 0
Q: 180
|:AF|"D"D2 FD GEFE|DEFG ABAF|D2 FD GEFA|"Em"BE~E2 BE~E2|
"D"D2 FD GEFE|DEFG ABAF|D2FD "A"GEFG|"D"Addc d2:|
AB|:"C"~=c3 A "G"~B2 GB|"D"A3B AGFE|D2 FD GEFA|"Em"BE~E2 BE~E2|
"C"=cBAc "G"BAGB|"D"Adde fdAF|D2FD "A"GEFG|"D"Addc d2:|
|:Ac|"D"d2 fd gefe|defg abaf|d2 fd gefa|"Em"be~e2 be~e2|
"D"d2 fd gefe|defg abaf|defg "A"a3g|"D"faeg fdd2:|
